assets/icon-email.svg

<svg xmlns="http://www.w3.org/2000/svg" xmlns:xlink="http://www.w3.org/1999/xlink" width="12.572265625" height="12.697998046875" viewBox="0 0 12.572265625 12.697998046875" fill="none">
<g >
<path     fill="#383838"  d="M6.46812 1.71661e-05Q8.23212 1.71661e-05 9.61812 0.742017Q11.0041 1.48402 11.7881 2.88402Q12.5721 4.28402 12.5721 6.20202Q12.5721 7.84002 11.9421 8.84102Q11.3121 9.84202 10.0801 9.84202Q9.38012 9.84202 8.88312 9.51302Q8.38612 9.18402 8.17612 8.52602Q7.84012 9.18402 7.25212 9.50602Q6.66412 9.82802 5.99212 9.82802Q5.22212 9.82802 4.56412 9.42202Q3.90612 9.01602 3.50712 8.24602Q3.10812 7.47602 3.10812 6.41202Q3.10812 5.36202 3.50712 4.58502Q3.90612 3.80802 4.56412 3.39502Q5.22212 2.98202 5.99212 2.98202Q6.59412 2.98202 7.14012 3.25502Q7.68612 3.52802 8.05012 4.07402Q8.09212 3.82202 8.12012 3.15002L9.25412 3.15002L9.25412 7.32202Q9.25412 8.66602 10.1361 8.66602Q10.7801 8.66602 11.0601 7.99402Q11.3401 7.32202 11.3401 6.27202Q11.3401 4.66202 10.7171 3.51402Q10.0941 2.36602 8.98812 1.77102Q7.88212 1.17602 6.42612 1.17602Q4.91412 1.17602 3.73112 1.82702Q2.54812 2.47802 1.88312 3.66102Q1.21812 4.84402 1.21812 6.37002Q1.21812 7.88202 1.86912 9.05102Q2.52012 10.22 3.68912 10.871Q4.85812 11.522 6.35612 11.522Q7.19612 11.522 7.91712 11.319Q8.63812 11.116 9.18412 10.752L9.74412 11.704Q9.17012 12.18 8.29512 12.439Q7.42012 12.698 6.35612 12.698Q4.50812 12.698 3.06612 11.9Q1.62412 11.102 0.812125 9.66002Q0.000124812 8.21802 0.000124812 6.37002Q0.000124812 4.50802 0.833125 3.05902Q1.66612 1.61002 3.13612 0.805017Q4.60612 1.71661e-05 6.46812 1.71661e-05ZM6.16012 8.55402Q6.90212 8.55402 7.42712 8.04302Q7.95212 7.53202 7.95212 6.41202Q7.95212 5.30602 7.42712 4.79502Q6.90212 4.28402 6.16012 4.28402Q5.39012 4.28402 4.94212 4.83702Q4.49412 5.39002 4.49412 6.41202Q4.49412 7.43402 4.94212 7.99402Q5.39012 8.55402 6.16012 8.55402Z">
</path>
</g>
</svg>

<svg xmlns="http://www.w3.org/2000/svg" width="12.572" height="12.698" viewBox="0 0 12.572 12.698" fill="none"><path fill="#383838" d="M6.468 0q1.764 0 3.15.742t2.17 2.142q.784 1.4.784 3.318 0 1.638-.63 2.639T10.08 9.842q-.7 0-1.197-.329-.497-.329-.707-.987-.336.658-.924.98-.588.322-1.26.322-.77 0-1.428-.406-.658-.406-1.057-1.176-.399-.77-.399-1.834 0-1.05.4-1.827.398-.777 1.056-1.19.658-.413 1.428-.413.602 0 1.148.273.546.273.91.819.042-.252.07-.924h1.134v4.172q0 1.344.882 1.344.644 0 .924-.672t.28-1.722q0-1.61-.623-2.758T8.988 1.771q-1.106-.595-2.562-.595-1.512 0-2.695.651-1.183.651-1.848 1.834T1.218 6.37q0 1.512.651 2.681t1.82 1.82q1.17.651 2.667.651.84 0 1.561-.203t1.267-.567l.56.952q-.574.476-1.449.735-.875.259-1.939.259-1.848 0-3.29-.798T.812 9.66Q0 8.218 0 6.37q0-1.862.833-3.311Q1.666 1.61 3.136.805 4.606 0 6.468 0zM6.16 8.554q.742 0 1.267-.511.525-.511.525-1.631 0-1.106-.525-1.617-.525-.511-1.267-.511-.77 0-1.218.553-.448.553-.448 1.575 0 1.022.448 1.582t1.218.56z"/></svg>
